X:149
T:Lady Francis Nevill's Delight. (p)1657.PLFD.150
M:4/4
L:1/8
Q:1/2=90
S:Playford, Dancing Master,Supplement to 3rd Ed.,1657
O:England
H:1657.
Z:Chris Partington.
K:F
(3cde|f2f2f2ef|gfedc2de|f2A2B3c|A6fg|
a2a2a2ga|(ba)(gf)g2c2|def2f3e|f6:|
|:z2|g2g2g2a2|gfefg2c2|defge3d|d6de|
f2g2a2(ga)|f2efd2AB|c2d2G3F|F6:|
